X: 20146
T: Jo's Highland Cake
R: waltz
M: 3/4
K: Gmajor
G>A BGAc|B>c dBce|d2 cBAG|F/G/A GFED|
G>A BGAc|B>c dBce|d2 D2 GF|G6:|
g2 gfga|b>a gfed|d2 cBAG|F/G/A GFED|
g2 gfga|b>a gfed|d2 D2 GF|G6:|

